Flat-Remix-Light/panel/indicator-keyboard-Gu.svg

<svg xmlns="http://www.w3.org/2000/svg" width="22" height="22" version="1.1">
 <defs>
  <style id="current-color-scheme" type="text/css">
   .ColorScheme-Text { color:#31363b; } .ColorScheme-Highlight { color:#3daee9; }
  </style>
 </defs>
 <rect style="opacity:0" width="22" height="22" x="0" y="0"/>
 <path style="fill:none;stroke:currentColor;stroke-width:1.99999976;stroke-linecap:round;stroke-linejoin:bevel" class="ColorScheme-Text" d="m 8.0240249,11.999735 1.9999971,0 m -0.9999984,0 -1.13e-5,2.000448 c 0,1 0,1 -1.0000025,0.999552 -0.407777,0 -1.7015092,4.48e-4 -1.9999974,4.48e-4 -1.0000024,0 -1.0000024,0 -1.0000024,-1 l 1.51e-5,-3.00045 -1.51e-5,-2.9995494 c 0,-1 0,-1 1.0000024,-1 0.2508095,0 1.6159785,-3.629e-4 1.9999974,-4.492e-4 1.0000025,4.492e-4 1.0000025,4.492e-4 1.0000025,1.0004492"/>
 <path style="fill:none;stroke:currentColor;stroke-width:1.99999976;stroke-linecap:round;stroke-linejoin:bevel" class="ColorScheme-Text" d="M 18.000004,7.0048001 18,13.0048 c 0,1.000449 -4e-6,2.000449 -1.000006,2.000449 -0.395448,0 -0.610938,0.0096 -0.999991,-4.48e-4 -0.383857,0.0015 -8e-6,4.48e-4 -1.000007,4.48e-4 -1.000002,0 -0.999995,-1 -0.999995,-2.000449 l 4e-6,-5.9999999"/>
</svg>

<svg xmlns="http://www.w3.org/2000/svg" width="12pt" height="12pt" version="1.1" viewBox="0 0 12 12">
 <g>
  <path style="fill:none;stroke-width:2;stroke-linecap:round;stroke-linejoin:bevel;stroke:rgb(19.215686%,21.176471%,23.137255%)" d="M 8.023438 12 L 10.023438 12 M 9.023438 12 L 9.023438 14 C 9.023438 15 9.023438 15 8.023438 15 C 7.617188 15 6.320312 15 6.023438 15 C 5.023438 15 5.023438 15 5.023438 14 L 5.023438 8 C 5.023438 7 5.023438 7 6.023438 7 C 6.273438 7 7.640625 7 8.023438 7 C 9.023438 7 9.023438 7 9.023438 8" transform="matrix(0.5,0,0,0.5,0.5,0.5)"/>
  <path style="fill:none;stroke-width:2;stroke-linecap:round;stroke-linejoin:bevel;stroke:rgb(19.215686%,21.176471%,23.137255%)" d="M 18 7.007812 L 18 13.007812 C 18 14.007812 18 15.007812 17 15.007812 C 16.601562 15.007812 16.390625 15.015625 16 15.007812 C 15.617188 15.007812 16 15.007812 15 15.007812 C 14 15.007812 14 14.007812 14 13.007812 L 14 7.007812" transform="matrix(0.5,0,0,0.5,0.5,0.5)"/>
 </g>
</svg>
